icons/calendar-plus.svg

<svg xmlns="http://www.w3.org/2000/svg" width="24" height="24" viewBox="0 0 24 24">
  <path d="M22,10 L22,20 C22,21.6568542 20.6568542,23 19,23 L5,23 C3.34314575,23 2,21.6568542 2,20 L2,10 L22,10 Z M12,12 C11.4477153,12 11,12.4477153 11,13 L11,13 L10.999,15 L9,15 L8.88337887,15.0067277 C8.38604019,15.0644928 8,15.4871642 8,16 C8,16.5522847 8.44771525,17 9,17 L9,17 L10.999,17 L11,19 L11.0067277,19.1166211 C11.0644928,19.6139598 11.4871642,20 12,20 C12.5522847,20 13,19.5522847 13,19 L13,19 L12.999,17 L15,17 L15.1166211,16.9932723 C15.6139598,16.9355072 16,16.5128358 16,16 C16,15.4477153 15.5522847,15 15,15 L15,15 L12.999,15 L13,13 L12.9932723,12.8833789 C12.9355072,12.3860402 12.5128358,12 12,12 Z M7,3 L7,4 L7.00672773,4.11662113 C7.06449284,4.61395981 7.48716416,5 8,5 C8.51283584,5 8.93550716,4.61395981 8.99327227,4.11662113 L9,4 L9,3 L15,3 L15,4 L15.0067277,4.11662113 C15.0644928,4.61395981 15.4871642,5 16,5 C16.5128358,5 16.9355072,4.61395981 16.9932723,4.11662113 L17,4 L17,3 L19,3 C20.6568542,3 22,4.34314575 22,6 L22,8 L2,8 L2,6 C2,4.34314575 3.34314575,3 5,3 L7,3 Z M16,1 C16.5128358,1 16.9355072,1.38604019 16.9932723,1.88337887 L17,2 L17,3 L15,3 L15,2 C15,1.44771525 15.4477153,1 16,1 Z M8,1 C8.51283584,1 8.93550716,1.38604019 8.99327227,1.88337887 L9,2 L9,3 L7,3 L7,2 C7,1.44771525 7.44771525,1 8,1 Z"/>
</svg>

<svg xmlns="http://www.w3.org/2000/svg" viewBox="0 0 24 24">
  <path d="M22 10v10a3 3 0 0 1-3 3H5a3 3 0 0 1-3-3V10h20zm-10 2a1 1 0 0 0-1 1v2H8.88A1 1 0 0 0 9 17h2v2.12a1 1 0 0 0 2-.12v-2h2.12a1 1 0 0 0-.12-2h-2v-2.12a1 1 0 0 0-1-.88zM7 3v1.12a1 1 0 0 0 2 0V3h6v1.12a1 1 0 0 0 2 0V3h2a3 3 0 0 1 3 3v2H2V6a3 3 0 0 1 3-3h2zm9-2a1 1 0 0 1 1 .88V3h-2V2a1 1 0 0 1 1-1zM8 1a1 1 0 0 1 1 .88V3H7V2a1 1 0 0 1 1-1z"/>
</svg>
